X:2466
T:Campbell's Frolic
M:6/8
L:1/8
Q:180
K:G
DG3/2A/ GA2|dB3G2|dgf gea|gf3d2|dgf edc|BAB GFE|DG3/2A/ GA2|dB3G2|D
W: G D G Em A D G D G D G
G3/2A/ GA2|dB3G2|dgf gea|gf3d2|dgf edc|BAB GFE|DG3/2A/ GA2|dB3G2|e/f/
W: G D G Em A D G D G D G
gf gef|gag afe|dgf gea|gf3d2|e/f/gf edc|BAB GFE|DG3/2A/ GA2|dB3G2|e/f/
W: G C D Em A D D7 G D G D G
gf gef|gag afe|dgf gea|gf3d2|e/f/gf edc|BAB GFE|DG3/2A/ GA2|dB3G2|
W: G C D Em A D D7 G D G D G


